X:32
T:Comfort, Comfort Ye My People
%%stretchlast false
M:6/4
L:1/4
K:Eb clef=C1
"^I"[E,GBe]2 "^V"[B,Bdf] "^I"[EBeg]2 "^V"[B,Bdf] | "^vi"[CGce] "^iii"[G,GBd] "^IV"[A,EAc]2 "^I"[E,EGB]2 | "^vi"[CGce]2 "^V"[B,Bdf] "^I"[EBeg]2 "^IV"[A,cea] | "^I²"[B,Beg]2 "^V"[B,Bdf] "^V7"[B,Adf] "^I"[E,GBe]2 | [E,GBe]2 "^V"[B,Bdf] "^I"[EBeg]2 "^V"[B,Bdf] | "^vi"[CGce] "^iii"[G,GBd] "^IV"[A,EAc]2 "^I"[E,EGB]2 | "^vi"[CGce]2 "^V"[B,Bdf] "^I"[EBeg]2 "^IV"[A,cea] | "^I²"[B,Beg]2 "^V"[B,Bdf] "^V7"[B,Adf] "^I"[E,GBe]2 | [EBeg]2 "^vi"[Cceg] "^I¹"[G,Beb]2 "^IV"[A,cea] | "^I"[E,Beg] "^V"[B,Bdf] "^I"[E,Beg]2 [Eg]2 | "^i"[EBeb] [A,Beb] [A,Geb] "^♯iii°"[B,Adc'] "^IV¹"[CAec'] "^i"[EFeb] | "^♯iii°"[B,cda] "^iii¹"[B,Bdg] "^i"[EBf]2 "^♯vi"[B,_d] "^ii"[F,c] | "^vi"[F,Ecg] "^I¹"[G,Eeg] "^v"[CFcb] "^V7"[B,Fda] "^i"[E,Fea] "^I"[E,Beg] | "^IVmaj7"[A,Gce] "^ii¹"[A,Bcf] "^I"[EBeg]2 "^IV¹"[CAe] "^i¹"[A,Ae] | [A,Beg] "^I"[E,Beg] "^ii"[F,cg] "^vi"[G,Bca] "^vi+"[B,Bca] "^iii¹"[B,Bg] | "^i"[E,ABf] "^I"[E,GBe] "^vii¹"[Fd] "^♯iii°"[Ad] "^I¹"[Ge]2 |]
